packages/core/src/svgs/tokens/mono/UNDEAD.svg

<svg width="24" height="24" viewBox="0 0 24 24" fill="none" xmlns="http://www.w3.org/2000/svg">
<path d="M5.72597 5.84497C5.93114 5.84497 5.30026 6.51176 4.9566 6.85028C4.53601 7.52219 3.63329 8.86598 3.42812 8.86598C3.17166 8.86598 3.29989 8.60963 3.42812 8.36337C3.55634 8.10692 3.29989 8.23515 2.91521 7.98894C2.52538 7.73249 3.0383 7.73249 3.29476 7.48629C3.55122 7.22984 2.65362 7.35806 2.1407 7.11187C1.62778 6.8554 2.65362 6.98363 3.0383 7.11187C3.42298 7.22984 3.29476 6.98363 3.29476 6.7323C3.29476 6.47585 2.78185 6.10142 2.90495 5.97832C3.03318 5.85009 3.29476 6.48097 3.67431 6.47585C4.06413 6.47585 3.80255 5.85009 3.93077 5.85009C4.059 5.85009 4.06413 6.47585 4.18724 6.47585C4.32058 6.47585 4.44369 5.85009 4.57191 5.85009C4.70015 5.85009 4.44882 6.47585 4.57191 6.59895C4.70527 6.72718 5.46951 5.84497 5.72597 5.84497ZM18.1539 18.1549C17.9487 18.1549 18.5796 17.4881 18.9233 17.1496C19.349 16.4828 20.2569 15.139 20.462 15.139C20.7185 15.139 20.5902 15.3955 20.462 15.6417C20.3337 15.8981 20.5902 15.7698 20.975 16.0212C21.3596 16.2725 20.8467 16.2725 20.5902 16.5238C20.3337 16.7752 21.2313 16.647 21.7443 16.8983C22.2572 17.1548 21.2313 17.0265 20.8467 16.8983C20.462 16.7752 20.5902 17.0265 20.5902 17.2778C20.5902 17.5291 21.1031 17.9036 20.975 18.0318C20.8467 18.1549 20.5902 17.5291 20.2055 17.5291C19.8209 17.5291 20.0774 18.1549 19.9491 18.1549C19.8209 18.1549 19.8209 17.5291 19.6926 17.5291C19.5644 17.5291 19.4361 18.1549 19.3079 18.1549C19.1798 18.1549 19.4361 17.5291 19.3079 17.401C19.1798 17.283 18.4103 18.1549 18.1539 18.1549Z" fill="white"/>
<path fill-rule="evenodd" clip-rule="evenodd" d="M5.24976 12.3644C5.24976 12.0721 4.99331 12.0002 4.85995 12.0002C4.64966 12.0002 4.33678 12.2464 4.20342 12.3644C3.94696 13.6723 3.4443 16.324 3.55202 16.519C3.63922 16.6831 3.9008 16.519 4.21881 16.319C4.37781 16.2215 4.55221 16.1138 4.73173 16.0318C5.24976 15.7855 6.16789 15.2983 6.29611 14.6879C6.39869 14.2007 6.16789 14.0724 6.03965 14.0724C6.29611 13.8313 6.81928 13.2466 6.81928 12.8568C6.81928 12.3644 6.56283 12.1233 6.03453 12.1233C5.61907 12.1233 5.33696 12.2875 5.24976 12.3644ZM5.12154 13.0978L4.98818 13.7133C5.12154 13.6723 5.43442 13.5903 5.6447 13.5903C5.86013 13.4261 6.21917 13.0774 5.90117 12.9748C5.59342 12.8824 5.24976 13.0158 5.12154 13.0978ZM4.72659 14.811L4.59837 15.4214C4.90611 15.3393 5.51136 15.1033 5.51136 14.8059C5.51136 14.5187 4.98818 14.6879 4.72659 14.8059V14.811Z" fill="white"/>
<path d="M8.12698 12.0002C7.70639 12.0002 7.34222 12.8157 7.21399 13.2209L6.50616 15.9086C6.2651 15.9907 5.77271 16.1804 5.77271 16.2779C5.77271 16.3753 6.12149 16.3958 6.29587 16.3958C6.34203 16.4368 6.44462 16.5189 6.5113 16.5189C6.57285 16.5189 6.74211 16.3599 6.81904 16.2779H8.77837L9.03997 16.0317C9.12716 16.1958 9.4862 16.5189 10.2197 16.5189C10.9531 16.5189 11.3994 15.9548 11.5276 15.6675C11.8354 14.8469 12.4406 13.1747 12.4406 12.9799C12.4406 12.7336 12.4406 12.0002 11.2609 12.0002C10.9338 11.9941 10.612 12.0829 10.3344 12.2558C10.0568 12.4287 9.83521 12.6785 9.6965 12.9747L8.91173 15.4213H7.47557C7.70734 14.6377 7.9674 13.8626 8.2552 13.0978C8.51679 12.4874 8.65015 12.0002 8.12698 12.0002ZM9.69136 15.4213L10.4761 12.9799C10.5633 12.8978 10.8403 12.7593 11.2609 12.8567C11.6763 12.9541 11.6097 13.303 11.5173 13.4671L10.4402 15.6009C10.4761 15.3854 10.3787 15.1135 10.3427 15.052C10.3427 15.2982 10.1273 15.4213 10.0863 15.4213H9.69136ZM10.3427 15.7854C10.3941 15.7342 10.4248 15.6727 10.4402 15.6009L10.3427 15.7854ZM14.5332 13.2209C14.3999 13.426 14.1948 13.8364 14.3999 13.8364C14.6615 13.8364 15.1846 13.2209 15.3181 12.9799C15.4463 12.7336 15.4463 12.2464 14.5332 12.2464C13.6203 12.2464 12.9637 12.2464 12.7021 12.9799C12.4158 13.8683 12.1541 14.7645 11.9174 15.6675C11.7892 15.9496 11.6609 16.5189 12.179 16.5189H13.3587C13.7485 16.3599 14.559 15.9342 14.6615 15.5444C14.7948 15.052 14.7948 14.6878 14.5332 14.811C14.4461 14.8519 14.241 15.0161 14.005 15.2059C13.5331 15.5854 12.9227 16.0726 12.8356 15.9086C12.8206 15.8827 12.8052 15.857 12.7894 15.8316L12.738 15.7342C12.7227 15.6727 12.738 15.6009 12.7894 15.3751L12.8356 15.175C12.9381 14.6878 13.2254 13.8313 13.3587 13.4671C13.5331 13.303 13.9331 12.9799 14.1383 12.9799C14.3999 12.9799 14.6718 12.9799 14.5332 13.2209ZM16.7542 12.7336C16.8568 12.2464 16.6259 12.0412 16.4978 12.0002C16.3439 12.0002 16.231 12.2977 16.113 12.6157C16.0471 12.8275 15.9557 13.0307 15.8412 13.2209C15.5796 13.5902 14.5332 16.4009 14.7948 16.5189C15 16.6215 15.4925 16.0726 15.7079 15.7854C15.7079 15.3803 15.8104 14.5647 16.231 14.5647C16.6516 14.5647 17.3646 15.6265 17.6672 16.1547C17.2569 16.2522 17.2363 16.4368 17.2774 16.5189C19.3136 16.76 19.4931 16.5344 19.8625 16.0726L19.8932 16.0317C20.2471 15.5957 20.1753 15.3546 20.0624 14.9546L20.0265 14.811C19.9547 14.5596 19.7188 14.4057 19.5034 14.2673C19.2983 14.1338 19.1085 14.0108 19.1085 13.8313C19.1085 13.4671 19.765 13.2209 20.0265 13.2209C20.1753 13.2209 20.1497 13.4671 20.1292 13.6928C20.1138 13.862 20.0983 14.0261 20.1548 14.0775C20.2882 14.2006 20.678 13.7851 20.9396 13.4619C21.2012 13.144 21.591 12.3644 21.4627 12.2464C21.3859 12.1745 21.1704 12.3541 20.9806 12.5181C20.8523 12.631 20.7293 12.7336 20.678 12.7336C20.6267 12.7336 20.601 12.6516 20.5601 12.549C20.4933 12.3695 20.4062 12.1232 20.1548 12.1232C19.765 12.1232 18.5853 13.0978 18.457 13.4671C18.326 13.8635 18.326 14.2914 18.457 14.6878C18.5289 14.9648 18.9341 15.1597 19.1803 15.2828C19.3701 15.3751 19.4675 15.4213 19.2418 15.4213C18.8212 15.4213 18.1954 15.7445 17.9339 15.9086C17.9339 15.5188 17.3184 14.5237 17.0157 14.0775C17.6723 13.7081 18.8468 12.2464 18.5853 12.1232C18.3801 12.0206 17.1901 12.8926 16.6259 13.3439L16.7542 12.7285V12.7336Z" fill="white"/>
<path d="M5.32656 7.04533C5.42913 6.50677 5.11627 6.37341 4.947 6.37341C4.63925 6.2657 4.31099 6.77861 4.17763 7.04533C4.05452 7.67621 3.77243 9.00977 3.67497 9.33291C3.54675 9.73814 3.16206 11.0819 4.69054 11.2205C6.20364 11.3538 6.58833 9.50213 6.84478 8.29171L6.85504 8.25581C6.9012 8.02499 6.95249 7.81983 6.99353 7.63518C7.17817 6.85555 7.26537 6.48112 6.85504 6.37341C6.44984 6.27083 6.04976 8.09168 5.83433 9.06111C5.78305 9.31759 5.73176 9.52272 5.70611 9.60482C5.58301 10.0048 5.19833 10.5433 4.69054 10.41C4.32638 10.3126 4.74696 8.96357 5.05984 7.96344C5.18294 7.57363 5.29065 7.23511 5.32656 7.04533ZM8.75795 9.19958C8.55278 9.19958 8.16811 7.31717 7.99884 6.37341C7.36283 6.37341 6.34212 11.3487 6.59859 11.3487C6.85504 11.3487 7.23459 10.9486 7.36283 10.6819C7.40385 10.5947 7.4295 10.4255 7.46028 10.2408C7.52696 9.83041 7.61415 9.33291 7.87061 9.33291C8.17836 9.33291 8.41943 10.6819 8.50662 11.3538C8.88619 11.3538 9.39396 10.2767 9.52219 9.73814C9.65043 9.19958 9.90684 8.52765 10.0351 8.25581C10.1582 7.98909 10.4146 6.37341 10.0351 6.37341C9.81969 6.37341 9.53758 7.22998 9.276 7.99935C9.07083 8.63026 8.87592 9.19958 8.76308 9.19958H8.75795ZM13.723 6.77861C13.5486 7.13765 13.287 7.85573 13.5948 7.85573C13.9743 7.85573 16.1388 7.85573 16.3901 7.31717C16.5953 6.88632 14.6975 6.77861 13.723 6.77861ZM13.3383 9.19958C13.0305 9.09187 13.3794 8.43533 13.5948 8.12245C14.1435 8.16861 15.2206 8.36352 15.1181 8.79435C14.995 9.33291 13.723 9.3329 13.3383 9.19958ZM12.574 10.41L13.1485 11.2205C13.169 11.0819 13.3383 10.8101 13.8461 10.8101C14.2858 10.8296 14.7232 10.7379 15.1181 10.5433C15.2206 10.4921 15.313 10.4818 15.395 10.4715C15.5336 10.4562 15.6259 10.4408 15.6259 10.2767C15.6259 10.0048 14.7386 9.73814 14.1025 9.73814C13.5896 9.73814 12.8716 10.1843 12.574 10.41Z" fill="white"/>
<path fill-rule="evenodd" clip-rule="evenodd" d="M11.1788 6.77873C11.1788 6.45559 10.9223 6.36841 10.7941 6.36841C10.4863 6.36841 10.4145 6.81977 10.4145 7.04545C10.158 8.52777 9.67593 11.4565 9.77851 11.3539C9.8298 11.2975 9.90669 11.2873 10.0503 11.2718C10.2556 11.2462 10.5837 11.2052 11.1788 11C11.9891 10.718 12.4507 9.86129 12.5739 9.46635C12.7021 8.74827 12.9843 7.26087 13.0868 7.04545C13.174 6.85567 12.9534 6.7377 12.7688 6.63511C12.6867 6.58895 12.6149 6.54793 12.5739 6.50689C12.4713 6.40431 11.5993 6.64025 11.1788 6.77873ZM10.9223 7.85585L10.4094 10.4101C10.8351 10.323 11.7378 9.94854 11.9379 9.1997C12.143 8.44571 12.1944 7.53785 12.1944 7.17881L10.9223 7.85073V7.85585ZM15.8822 10.0049C16.0104 9.91778 16.3438 9.71265 16.6465 9.60494C17.1952 8.48161 18.4262 6.26582 18.934 6.37353C19.4315 6.47612 19.2316 6.90697 19.0007 7.41475C18.934 7.55324 18.8622 7.70711 18.8057 7.85585C18.6006 8.38929 18.4673 9.87159 18.4262 10.5435L17.7903 11.2206V9.73312H17.4106L16.7747 10.8102C16.5592 10.9025 16.0873 11.1641 15.8822 11.4873C15.8411 11.1282 15.8309 10.3589 16.1387 10.1435L15.8822 10.0049ZM17.7903 8.92779L18.0467 8.26105V8.92276H17.7903V8.92779ZM19.9496 6.37353C19.7444 6.37353 19.529 6.64025 19.4418 6.77873C19.3187 7.27113 19.0366 8.33799 18.934 8.66114C18.8315 8.98428 18.6365 10.5897 18.5544 11.3539C18.7648 11.3539 19.3443 11.2821 19.9547 10.9949C20.4647 10.7309 20.9017 10.345 21.2267 9.87159C21.5179 9.03191 21.7712 8.17967 21.9859 7.31729C22.0884 6.77873 21.6063 6.64025 21.3499 6.64025L20.3343 6.77873C20.2932 6.64025 20.1548 6.36841 19.9547 6.36841L19.9496 6.37353ZM19.9496 7.71737L19.4418 10.4101C19.8708 10.3096 20.2639 10.0934 20.5786 9.78494C20.8933 9.47664 21.1175 9.08792 21.2267 8.66114V7.17881L19.9496 7.71737Z" fill="white"/>
</svg>

<svg xmlns="http://www.w3.org/2000/svg" width="24" height="24" fill="none" viewBox="0 0 24 24">
    <path fill="#fff" d="M5.726 5.845c.205 0-.426.667-.77 1.005-.42.672-1.323 2.016-1.528 2.016-.256 0-.128-.256 0-.503.128-.256-.128-.128-.513-.374-.39-.257.123-.257.38-.503.256-.256-.641-.128-1.154-.374-.513-.257.513-.128.897 0 .385.118.257-.128.257-.38 0-.256-.513-.63-.39-.754.128-.128.39.503.77.498.39 0 .128-.626.256-.626s.133.626.256.626c.134 0 .257-.626.385-.626s-.123.626 0 .749c.133.128.898-.754 1.154-.754m12.428 12.31c-.205 0 .426-.667.77-1.005.425-.667 1.333-2.011 1.538-2.011.256 0 .128.257 0 .503-.128.256.128.128.513.38.385.25-.128.25-.385.502-.256.251.641.123 1.154.374.513.257-.513.128-.897 0-.385-.123-.257.128-.257.38 0 .251.513.626.385.754-.128.123-.385-.503-.77-.503-.384 0-.128.626-.256.626s-.128-.626-.256-.626c-.129 0-.257.626-.385.626s.128-.626 0-.754c-.128-.118-.898.754-1.154.754"/>
    <path fill="#fff" fill-rule="evenodd" d="M5.25 12.364c0-.292-.257-.364-.39-.364-.21 0-.523.246-.657.364-.256 1.308-.759 3.96-.651 4.155.087.164.349 0 .667-.2a5 5 0 0 1 .513-.287c.518-.246 1.436-.734 1.564-1.344.103-.487-.128-.616-.256-.616.256-.24.78-.825.78-1.215 0-.493-.257-.734-.785-.734-.416 0-.698.165-.785.241m-.128.734-.134.615c.134-.04.446-.123.657-.123.215-.164.574-.513.256-.615-.308-.093-.651.04-.78.123m-.395 1.713-.129.61c.308-.082.913-.318.913-.615 0-.287-.523-.118-.784 0z" clip-rule="evenodd"/>
    <path fill="#fff" d="M8.127 12c-.42 0-.785.816-.913 1.22l-.708 2.689c-.24.082-.733.271-.733.369s.348.118.523.118c.046.04.149.123.215.123.062 0 .231-.16.308-.241h1.96l.261-.246c.087.164.446.487 1.18.487.733 0 1.18-.564 1.308-.851.307-.821.913-2.493.913-2.688 0-.246 0-.98-1.18-.98a1.69 1.69 0 0 0-1.564.975l-.785 2.446H7.476q.346-1.175.78-2.323c.26-.61.394-1.098-.129-1.098m1.564 3.421.785-2.441c.087-.082.364-.22.785-.123.415.097.349.446.256.61l-1.077 2.134c.036-.216-.061-.488-.097-.549 0 .246-.216.37-.257.37zm.652.364a.36.36 0 0 0 .097-.184zm4.19-2.564c-.133.205-.338.615-.133.615.261 0 .785-.615.918-.856.128-.246.128-.734-.785-.734s-1.57 0-1.83.734a51 51 0 0 0-.786 2.688c-.128.282-.256.85.262.85h1.18c.39-.158 1.2-.584 1.303-.974.133-.492.133-.856-.129-.733-.087.04-.292.205-.528.395-.472.38-1.082.867-1.17.703l-.046-.077-.051-.098c-.015-.061 0-.133.051-.359l.047-.2c.102-.487.39-1.344.523-1.708.174-.164.574-.487.78-.487.26 0 .533 0 .394.24m2.221-.487c.103-.488-.128-.693-.256-.734-.154 0-.267.298-.385.616a2.8 2.8 0 0 1-.272.605c-.261.37-1.308 3.18-1.046 3.298.205.103.697-.446.913-.734 0-.405.102-1.22.523-1.22.42 0 1.134 1.062 1.436 1.59-.41.097-.43.282-.39.364 2.037.241 2.216.015 2.585-.446l.031-.041c.354-.436.282-.677.17-1.077l-.037-.144c-.071-.251-.307-.405-.523-.544-.205-.133-.395-.256-.395-.436 0-.364.657-.61.918-.61.15 0 .124.246.103.472-.015.169-.03.333.026.385.133.123.523-.293.785-.616.261-.318.651-1.098.523-1.216-.077-.072-.293.108-.482.272-.129.113-.252.216-.303.216s-.077-.082-.118-.185c-.067-.18-.154-.426-.405-.426-.39 0-1.57.975-1.698 1.344a1.95 1.95 0 0 0 0 1.22c.072.278.477.473.723.596.19.092.288.138.062.138-.42 0-1.047.324-1.308.488 0-.39-.616-1.385-.918-1.832.656-.369 1.83-1.83 1.57-1.954-.206-.102-1.396.77-1.96 1.22l.128-.614zM5.327 7.045c.102-.538-.21-.672-.38-.672-.308-.107-.636.406-.77.672-.122.631-.405 1.965-.502 2.288-.128.405-.513 1.749 1.016 1.887 1.513.134 1.897-1.718 2.154-2.928l.01-.036c.046-.231.097-.436.139-.62.184-.78.271-1.155-.139-1.263-.405-.102-.805 1.719-1.02 2.688a7 7 0 0 1-.129.544c-.123.4-.508.938-1.015.805-.365-.097.056-1.446.369-2.447.123-.39.23-.728.267-.918M8.757 9.2c-.204 0-.589-1.883-.758-2.827-.636 0-1.657 4.976-1.4 4.976.256 0 .636-.4.764-.667.04-.087.066-.257.097-.441.067-.41.154-.908.41-.908.308 0 .55 1.349.637 2.02.38 0 .887-1.076 1.015-1.615s.385-1.21.513-1.482c.123-.267.38-1.883 0-1.883-.215 0-.497.857-.759 1.626-.205.631-.4 1.2-.513 1.2zm4.966-2.421c-.174.359-.436 1.077-.128 1.077.38 0 2.544 0 2.795-.539.205-.43-1.693-.538-2.667-.538m-.385 2.42c-.307-.107.041-.764.257-1.077.548.047 1.626.242 1.523.672-.123.539-1.395.539-1.78.406m-.764 1.211.575.81c.02-.138.19-.41.697-.41.44.02.877-.072 1.272-.267.103-.05.195-.061.277-.071.139-.016.23-.031.23-.195 0-.272-.886-.539-1.523-.539-.512 0-1.23.446-1.528.672"/>
    <path fill="#fff" fill-rule="evenodd" d="M11.179 6.779a.385.385 0 0 0-.385-.41c-.308 0-.38.45-.38.676-.256 1.483-.738 4.412-.635 4.309.05-.056.128-.067.271-.082A5 5 0 0 0 11.18 11c.81-.282 1.272-1.139 1.395-1.534.128-.718.41-2.205.513-2.42.087-.19-.134-.308-.318-.41a1 1 0 0 1-.195-.13c-.103-.102-.975.134-1.395.273m-.257 1.077-.513 2.554c.426-.087 1.329-.461 1.529-1.21.205-.754.256-1.662.256-2.021l-1.272.672zm4.96 2.149a4 4 0 0 1 .765-.4c.548-1.123 1.78-3.34 2.287-3.231.497.102.298.533.067 1.04a6 6 0 0 0-.195.442c-.205.533-.339 2.016-.38 2.688l-.636.677V9.733h-.38l-.635 1.077c-.216.092-.688.354-.893.677-.04-.359-.051-1.128.257-1.344zm1.908-1.077.257-.667v.662h-.257zm2.16-2.554c-.206 0-.421.266-.508.405-.123.492-.405 1.559-.508 1.882s-.297 1.929-.38 2.693c.21 0 .79-.072 1.4-.36.51-.263.948-.649 1.273-1.122q.436-1.26.759-2.555c.102-.538-.38-.677-.636-.677l-1.016.139c-.04-.139-.18-.41-.38-.41zm0 1.343-.508 2.693a2.41 2.41 0 0 0 1.785-1.749V7.18z" clip-rule="evenodd"/>
</svg>
